symbols/web/border_inner/materialsymbolsrounded/border_inner_wght700_48px.svg

<svg xmlns="http://www.w3.org/2000/svg" height="48" width="48"><path d="M5.45 42.55v-4.1h4.1v4.1Zm18.55 0q-.85 0-1.45-.6t-.6-1.45V26.1H7.5q-.85 0-1.45-.6t-.6-1.45q0-.85.6-1.45T7.5 22h14.45V7.45q0-.85.6-1.45T24 5.4q.85 0 1.45.6t.6 1.45V22H40.5q.85 0 1.45.6t.6 1.45q0 .85-.6 1.45t-1.45.6H26.05v14.4q0 .85-.6 1.45t-1.45.6ZM5.45 34.3v-4.1h4.1v4.1Zm0-16.5v-4.1h4.1v4.1Zm0-8.25v-4.1h4.1v4.1Zm8.25 33v-4.1h4.1v4.1Zm0-33v-4.1h4.1v4.1Zm16.5 33v-4.1h4.1v4.1Zm0-33v-4.1h4.1v4.1Zm8.25 33v-4.1h4.1v4.1Zm0-8.25v-4.1h4.1v4.1Zm0-16.5v-4.1h4.1v4.1Zm0-8.25v-4.1h4.1v4.1Z"/></svg>

<svg xmlns="http://www.w3.org/2000/svg" height="48" width="48"><path d="M5.45 42.55V38.45H9.55V42.55ZM24 42.55Q23.15 42.55 22.55 41.95Q21.95 41.35 21.95 40.5V26.1H7.5Q6.65 26.1 6.05 25.5Q5.45 24.9 5.45 24.05Q5.45 23.2 6.05 22.6Q6.65 22 7.5 22H21.95V7.45Q21.95 6.6 22.55 6Q23.15 5.4 24 5.4Q24.85 5.4 25.45 6Q26.05 6.6 26.05 7.45V22H40.5Q41.35 22 41.95 22.6Q42.55 23.2 42.55 24.05Q42.55 24.9 41.95 25.5Q41.35 26.1 40.5 26.1H26.05V40.5Q26.05 41.35 25.45 41.95Q24.85 42.55 24 42.55ZM5.45 34.3V30.2H9.55V34.3ZM5.45 17.8V13.7H9.55V17.8ZM5.45 9.55V5.45H9.55V9.55ZM13.7 42.55V38.45H17.8V42.55ZM13.7 9.55V5.45H17.8V9.55ZM30.2 42.55V38.45H34.3V42.55ZM30.2 9.55V5.45H34.3V9.55ZM38.45 42.55V38.45H42.55V42.55ZM38.45 34.3V30.2H42.55V34.3ZM38.45 17.8V13.7H42.55V17.8ZM38.45 9.55V5.45H42.55V9.55Z"/></svg>
